X:5967
T:Shaskeen Jig
O:england
M:6/8
L:1/8
Q:150
C:Brendan Tonra
R:double jig
K:D
e | ~f3 edB | {d}BAF {G}FEF | EDB, DFA | {d}BAF Ade |
~f3 edB | {d}BAF {G}FEF | EDB, DFA | Bdc d2  :||:
e | ~f3 afe | dB/2c/2d BAF | AFE DFA | {d}BAF EFA |
~B3 AFE | DFA {d}BAF | Ade faf | edc d2  :||


